devices/symbolic/input-keyboard-symbolic.svg

<svg viewBox="0 0 16 16" xmlns="http://www.w3.org/2000/svg"><path d="m2.8671875 2.4003906s-1.8671875.0005208-1.8671875 1.8671875v7.4648439c0 1.866667 1.8671875 1.867187 1.8671875 1.867187h10.2656245s1.867188-.00052 1.867188-1.867187v-7.4648439c0-1.8666667-1.867188-1.8671875-1.867188-1.8671875zm-.1171875 1.5996094h1.5c.1384999 0 .25.1114999.25.25v1.5c0 .1385-.1115001.25-.25.25h-1.5c-.1385001 0-.25-.1115-.25-.25v-1.5c0-.1385001.1114999-.25.25-.25zm3 0h1.5c.1384999 0 .25.1114999.25.25v1.5c0 .1385-.1115001.25-.25.25h-1.5c-.1385 0-.25-.1115-.25-.25v-1.5c0-.1385001.1115-.25.25-.25zm3 0h1.5c.1385 0 .25.1114999.25.25v1.5c0 .1385-.1115.25-.25.25h-1.5c-.1385001 0-.25-.1115-.25-.25v-1.5c0-.1385001.1114999-.25.25-.25zm3 0h1.5c.138501 0 .25.1114999.25.25v1.5c0 .1385-.111499.25-.25.25h-1.5c-.1385 0-.25-.1115-.25-.25v-1.5c0-.1385001.1115-.25.25-.25zm-9 3h1.5c.1384999 0 .25.1115.25.25v1.5c0 .1385-.1115001.25-.25.25h-1.5c-.1385001 0-.25-.1115-.25-.25v-1.5c0-.1385.1114999-.25.25-.25zm3 0h1.5c.1384999 0 .25.1115.25.25v1.5c0 .1385-.1115001.25-.25.25h-1.5c-.1385 0-.25-.1115-.25-.25v-1.5c0-.1385.1115-.25.25-.25zm3 0h1.5c.1385 0 .25.1115.25.25v1.5c0 .1385-.1115.25-.25.25h-1.5c-.1385001 0-.25-.1115-.25-.25v-1.5c0-.1385.1114999-.25.25-.25zm3 0h1.5c.138501 0 .25.1115.25.25v1.5c0 .1385-.111499.25-.25.25h-1.5c-.1385 0-.25-.1115-.25-.25v-1.5c0-.1385.1115-.25.25-.25zm-7 3h6.5c.1385 0 .25.1115.25.25v1.5c0 .138501-.1115.25-.25.25h-6.5c-.1385 0-.25-.111499-.25-.25v-1.5c0-.1385.1114999-.25.25-.25z" fill="#bebebe"/></svg>

<svg xmlns="http://www.w3.org/2000/svg" viewBox="0 0 16 16">
  <defs id="defs3051">
    <style type="text/css" id="current-color-scheme">
      .ColorScheme-Text {
        color:#4d4d4d;
      }
      </style>
  </defs>
 <path 
     style="fill:#bebebe;fill-opacity:1;stroke:none" 
     class="ColorScheme-Text"
     d="M 2.5 2 C 2.5 2 0.5 2 0.5 4 L 0.5 12 C 0.5 14 2.5 14 2.5 14 L 13.5 14 C 13.5 14 15.5 14 15.5 12 L 15.5 4 C 15.5 2 13.5 2 13.5 2 L 2.5 2 z M 2.75 4 L 4.25 4 C 4.3885 4 4.5 4.1115 4.5 4.25 L 4.5 5.75 C 4.5 5.8885 4.3885 6 4.25 6 L 2.75 6 C 2.6115 6 2.5 5.8885 2.5 5.75 L 2.5 4.25 C 2.5 4.1115 2.6115 4 2.75 4 z M 5.75 4 L 7.25 4 C 7.3885 4 7.5 4.1115 7.5 4.25 L 7.5 5.75 C 7.5 5.8885 7.3885 6 7.25 6 L 5.75 6 C 5.6115 6 5.5 5.8885 5.5 5.75 L 5.5 4.25 C 5.5 4.1115 5.6115 4 5.75 4 z M 8.75 4 L 10.25 4 C 10.3885 4 10.5 4.1115 10.5 4.25 L 10.5 5.75 C 10.5 5.8885 10.3885 6 10.25 6 L 8.75 6 C 8.6115 6 8.5 5.8885 8.5 5.75 L 8.5 4.25 C 8.5 4.1115 8.6115 4 8.75 4 z M 11.75 4 L 13.25 4 C 13.3885 4 13.5 4.1115 13.5 4.25 L 13.5 5.75 C 13.5 5.8885 13.3885 6 13.25 6 L 11.75 6 C 11.6115 6 11.5 5.8885 11.5 5.75 L 11.5 4.25 C 11.5 4.1115 11.6115 4 11.75 4 z M 2.75 7 L 4.25 7 C 4.3885 7 4.5 7.1115 4.5 7.25 L 4.5 8.75 C 4.5 8.8885 4.3885 9 4.25 9 L 2.75 9 C 2.6115 9 2.5 8.8885 2.5 8.75 L 2.5 7.25 C 2.5 7.1115 2.6115 7 2.75 7 z M 5.75 7 L 7.25 7 C 7.3885 7 7.5 7.1115 7.5 7.25 L 7.5 8.75 C 7.5 8.8885 7.3885 9 7.25 9 L 5.75 9 C 5.6115 9 5.5 8.8885 5.5 8.75 L 5.5 7.25 C 5.5 7.1115 5.6115 7 5.75 7 z M 8.75 7 L 10.25 7 C 10.3885 7 10.5 7.1115 10.5 7.25 L 10.5 8.75 C 10.5 8.8885 10.3885 9 10.25 9 L 8.75 9 C 8.6115 9 8.5 8.8885 8.5 8.75 L 8.5 7.25 C 8.5 7.1115 8.6115 7 8.75 7 z M 11.75 7 L 13.25 7 C 13.3885 7 13.5 7.1115 13.5 7.25 L 13.5 8.75 C 13.5 8.8885 13.3885 9 13.25 9 L 11.75 9 C 11.6115 9 11.5 8.8885 11.5 8.75 L 11.5 7.25 C 11.5 7.1115 11.6115 7 11.75 7 z M 4.75 10 L 11.25 10 C 11.3885 10 11.5 10.1115 11.5 10.25 L 11.5 11.75 C 11.5 11.8885 11.3885 12 11.25 12 L 4.75 12 C 4.6115 12 4.5 11.8885 4.5 11.75 L 4.5 10.25 C 4.5 10.1115 4.6115 10 4.75 10 z "
     />
</svg>
